X: 233
M: C|
L: 1/8
K: G
(GA).G.B (de).d.B | (dg).d.B dedB | (cd).B.c (AB).G.A | EGFA G2G |]
d |\
.g.g.g.G .g.G.d.G | (gG).f.G (eG).d.G | .c.c.c.A .B.B.B.G | (AE).A.G (FA).A.d |
(B/A/G) (dG) gGdG | (ec).A.e (dB).G.d | (cd).B.c (AB).G.A | EGFA G2G |]


